local/share/icons/dracula-icons-main/24/devices/drive-harddisk-encrypted.svg

<?xml version="1.0" encoding="UTF-8"?>
<svg xmlns="http://www.w3.org/2000/svg" xmlns:xlink="http://www.w3.org/1999/xlink" width="24" height="24" viewBox="0 0 24 24">
<path fill-rule="nonzero" fill="rgb(44.705882%, 44.705882%, 44.705882%)" fill-opacity="1" d="M 7 5 C 6 5 6 6 6 6 L 6 18 C 6 18 6 19 7 19 L 17 19 C 17 19 18 19 18 18 L 18 6 C 18 6 18 5 17 5 Z M 12 7 C 17.332031 7 17.332031 15 12 15 L 8 15 L 8 11 C 8 8.789062 9.789062 7 12 7 Z M 11.996094 8 C 11.929688 8 11.859375 8.003906 11.792969 8.011719 C 10.773438 8.117188 10 8.976562 9.996094 10 L 10 11 L 9 11 L 9 14 L 12 14 C 13.636719 14 14.96875 12.6875 14.996094 11.050781 L 14.996094 11 L 13.996094 11 L 13.996094 10 C 13.996094 8.949219 13.1875 8.078125 12.136719 8.007812 C 12.089844 8.003906 12.042969 8 11.996094 8 Z M 11.996094 9 C 12.550781 9 12.996094 9.449219 12.996094 10 L 12.996094 11 L 10.996094 11 L 10.996094 10 C 10.996094 9.449219 11.445312 9 11.996094 9 Z M 11.996094 9 "/>
</svg>

<svg width="24" height="24" version="1.1" viewBox="0 0 24 24" xmlns="http://www.w3.org/2000/svg">
 <defs>
  <style id="current-color-scheme" type="text/css">.ColorScheme-Text { color:#727272; } .ColorScheme-Highlight { color:#5294e2; }</style>
 </defs>
 <path class="ColorScheme-Text" d="m7 5c-1 0-1 1-1 1v12s0 1 1 1h10s1 0 1-1v-12s0-1-1-1zm5 2c5.3333 0 5.3333 8 0 8h-4v-4c0-2.2091 1.7909-4 4-4zm-2e-3 1a2 2 0 0 0-0.20698 0.011719 2 2 0 0 0-1.793 1.9883l0.00195 1h-1v3h3a3 3 0 0 0 2.998-2.9473v-0.05273h-1v-1a2 2 0 0 0-1.8594-1.9941 2 2 0 0 0-0.14062-0.00586zm0 1a1 1 0 0 1 1 1v1h-2v-1a1 1 0 0 1 1-1z" color="#727272" fill="currentColor"/>
</svg>
